X: 38460
T: Stay At Home
R: hornpipe
M: 4/4
K: Gmajor
|:(3GAB (dB) {d}cBAB|GBA(G EF)GE|(DG) (3GGG ABAG|(3FGA ((3GFE) D2 ((3DEF)|
(3GAB (dg) {g}e2 (dc)|Bcd(B cB)AG|(EG) (3GGG (AB)(AG)|1 (3FGA ((3DEF) G2 ((3DEF):|2 (3FGA ((3DEF) G2 ((3def)||
|:({a}gf)(ed) (3Bcd ({d}BA)|GBA(G EG)DG|{G}EGD(G EF)GA|(3BAB ({d}3cBc) (3dcd ((3^def)|
g2 (dg) {g}e2 (dc)|Bcd(B cB)AG|(EG) (3GGG (AB)(AG)|1 (3FGA ((3DEF) G2 ((3def):|2 (3FGA ((3DEF) G4||

